src/icons/trigger-pipeline.svg

<?xml version="1.0" encoding="UTF-8"?>
<svg width="32px" height="32px" viewBox="0 0 32 32" version="1.1" xmlns="http://www.w3.org/2000/svg" xmlns:xlink="http://www.w3.org/1999/xlink">
    <!-- Generator: Sketch 59 (86127) - https://sketch.com -->
    <title>HDL/Icon/Standard/Trigger/triggerpipeline</title>
    <desc>Created with Sketch.</desc>
    <g id="Colors" stroke="none" stroke-width="1" fill="none" fill-rule="evenodd">
        <g id="Trigger-Icons" transform="translate(-100.000000, -289.000000)">
            <g id="HDL/Icon/Standard/Trigger/triggerpipeline" transform="translate(100.000000, 289.000000)">
                <g id="TriggerPipeline">
                    <g id="Group-Copy" fill="#F0EDFF" fill-rule="nonzero">
                        <circle id="Oval" cx="16" cy="16" r="16"></circle>
                    </g>
                    <g id="icons8-piping" transform="translate(8.000000, 8.000000)" fill-rule="nonzero">
                        <path d="M5.23529412,5.57142857 C4.97610306,5.57142857 4.78860282,5.57142857 4.76470588,5.14285714 L4.76470588,0 L1,0 L1,5.14285714 C1,6.63448671 2.14889694,9 5.23529412,9 L9,9 C9,7.84821429 9,6.73493314 9,5.57142857 L5.23529412,5.57142857 Z" id="Path" fill="#5CBDF9"></path>
                        <path d="M0,0 L6,0 L6,1.66666667 L0,1.66666667 L0,0 Z M7.31578947,5 L9,5 L9,10 L7.31578947,10 L7.31578947,5 Z" id="Shape" fill="#5CBDF9"></path>
                        <path d="M11.7647059,6 L8,6 C8,7.16350457 8,8.27678571 8,9.42857143 L11.7647059,9.42857143 C12.2352941,9.42857143 12.2352941,9.65625 12.2352941,9.85714286 L12.2352941,15 L16,15 L16,9.85714286 C16,7.04631686 13.4025736,6 11.7647059,6 Z" id="Path" fill="#8C78ED"></path>
                        <path d="M11,13.3333333 L17,13.3333333 L17,15 L11,15 L11,13.3333333 Z M8,5 L9.68421053,5 L9.68421053,10 L8,10 L8,5 Z" id="Shape" fill="#8C78ED"></path>
                    </g>
                </g>
            </g>
        </g>
    </g>
</svg>

<?xml version="1.0" encoding="utf-8"?>
<!-- Generator: Adobe Illustrator 20.1.0, SVG Export Plug-In . SVG Version: 6.00 Build 0)  -->
<svg version="1.1" id="Layer_1" xmlns="http://www.w3.org/2000/svg" xmlns:xlink="http://www.w3.org/1999/xlink" x="0px" y="0px"
	 viewBox="0 0 32 32" style="enable-background:new 0 0 32 32;" xml:space="preserve">
<style type="text/css">
	.st0{fill:#F0EDFF;}
	.st1{fill:#5CBDF9;}
	.st2{fill:#8C78ED;}
</style>
<title>HDL/Icon/Standard/Trigger/triggerpipeline</title>
<desc>Created with Sketch.</desc>
<g id="Colors">
	<g id="Trigger-Icons" transform="translate(-100.000000, -289.000000)">
		<g id="HDL_x2F_Icon_x2F_Standard_x2F_Trigger_x2F_triggerpipeline" transform="translate(100.000000, 289.000000)">
			<g id="TriggerPipeline">
				<g id="Group-Copy">
					<circle id="Oval" class="st0" cx="16" cy="16" r="16"/>
				</g>
				<g id="icons8-piping" transform="translate(8.000000, 8.000000)">
					<path id="Path" class="st1" d="M5.2,5.6c-0.3,0-0.4,0-0.5-0.4V0H1v5.1C1,6.6,2.1,9,5.2,9H9c0-1.2,0-2.3,0-3.4H5.2z"/>
					<path id="Shape" class="st1" d="M0,0h6v1.7H0V0z M7.3,5H9v5H7.3V5z"/>
					<path id="Path_1_" class="st2" d="M11.8,6H8c0,1.2,0,2.3,0,3.4h3.8c0.5,0,0.5,0.2,0.5,0.4V15H16V9.9C16,7,13.4,6,11.8,6z"/>
					<path id="Shape_1_" class="st2" d="M11,13.3h6V15h-6V13.3z M8,5h1.7v5H8V5z"/>
				</g>
			</g>
		</g>
	</g>
</g>
</svg>
